dist/img/icons/compare-green.svg

<svg width="24" height="16" viewBox="0 0 24 16" fill="none" xmlns="http://www.w3.org/2000/svg">
<path d="M11.5253 5.63114V5.73114H11.6253H12.6253H12.7253V5.63114V3.42422H17.3054L13.4845 9.71257H12.7251H12.6251V9.81257V10.8126C12.6251 11.436 12.7914 12.0401 13.0965 12.5865C13.4002 13.1306 13.8318 13.6012 14.3465 13.9831C14.861 14.3648 15.4562 14.6566 16.093 14.8523C16.7302 15.0481 17.4062 15.147 18.0843 15.147C18.7625 15.147 19.4385 15.0481 20.0757 14.8523C20.7124 14.6566 21.3077 14.3648 21.8222 13.9831C22.3368 13.6012 22.7684 13.1306 23.0722 12.5865C23.3772 12.0401 23.5435 11.436 23.5435 10.8126V9.81257V9.71257H23.4435H22.5308L18.71 3.42422H22.3249H22.4249V3.32422V2.32422V2.22422H22.3249H12.7253V1V0.9H12.6253H11.6253H11.5253V1V2.22422H1.6386H1.5386V2.32422V3.32422V3.42422H1.6386H5.10026L1.27941 9.71257H0.52002H0.42002V9.81257V10.8126C0.42002 11.436 0.586312 12.0401 0.891371 12.5865C1.19512 13.1306 1.62669 13.6012 2.14134 13.9831C2.65587 14.3648 3.25111 14.6566 3.88786 14.8523C4.52504 15.0481 5.20104 15.147 5.87921 15.147C6.55737 15.147 7.23338 15.0481 7.87055 14.8523C8.5073 14.6566 9.10254 14.3648 9.61708 13.9831C10.1317 13.6012 10.5633 13.1306 10.867 12.5865C11.1721 12.0401 11.3384 11.436 11.3384 10.8126V9.81257V9.71257H11.2384H10.3257L6.50488 3.42422H11.5253V5.63114ZM1.82519 11.7724C1.72819 11.5511 1.66519 11.3229 1.63703 11.092H10.1214C10.0932 11.3229 10.0302 11.5511 9.93323 11.7724C9.89938 11.8497 9.86137 11.9261 9.81926 12.0016C9.60788 12.3802 9.29683 12.7264 8.90203 13.0194C8.50722 13.3123 8.03709 13.5457 7.51802 13.7052C6.99898 13.8647 6.44205 13.947 5.87921 13.947C5.31636 13.947 4.75943 13.8647 4.2404 13.7052C3.72132 13.5457 3.25119 13.3123 2.85638 13.0194C2.46158 12.7264 2.15053 12.3802 1.93916 12.0016C1.89704 11.9261 1.85904 11.8497 1.82519 11.7724ZM13.8422 11.092H22.3265C22.2984 11.3229 22.2353 11.5511 22.1384 11.7724C22.1045 11.8497 22.0665 11.9262 22.0244 12.0016C21.813 12.3802 21.502 12.7264 21.1072 13.0194C20.7123 13.3123 20.2422 13.5457 19.7231 13.7052C19.2041 13.8647 18.6472 13.947 18.0843 13.947C17.5215 13.947 16.9646 13.8647 16.4455 13.7052C15.9264 13.5457 15.4563 13.3123 15.0615 13.0194C14.6667 12.7264 14.3557 12.3802 14.1443 12.0016C14.1022 11.9261 14.0642 11.8497 14.0303 11.7724C13.9333 11.5511 13.8703 11.3229 13.8422 11.092ZM5.80257 4.5793L8.92158 9.71257H2.68356L5.80257 4.5793ZM14.8887 9.71257L18.0077 4.5793L21.1267 9.71257H14.8887Z" fill="#4BA82E" stroke="#4BA82E" stroke-width="0.2"/>
</svg>

<svg width="24" height="16" fill="none" xmlns="http://www.w3.org/2000/svg"><path d="M11.525 5.631v.1h1.2V3.424h4.58l-3.82 6.289h-.86v1.1c0 .623.166 1.227.472 1.773a4.462 4.462 0 001.25 1.397 5.78 5.78 0 001.746.87 6.802 6.802 0 001.991.294 6.8 6.8 0 001.992-.295 5.782 5.782 0 001.746-.869 4.464 4.464 0 001.25-1.397c.305-.546.472-1.15.472-1.773v-1.1H22.53l-3.82-6.289h3.715v-1.2h-9.7V.9h-1.2v1.324H1.54v1.2H5.1L1.28 9.713H.42v1.1c0 .623.166 1.227.471 1.773a4.463 4.463 0 001.25 1.397c.515.382 1.11.674 1.747.87a6.802 6.802 0 001.991.294c.678 0 1.354-.099 1.992-.295a5.782 5.782 0 001.746-.869 4.462 4.462 0 001.25-1.397c.305-.546.471-1.15.471-1.773v-1.1h-1.012L6.505 3.424h5.02v2.207zm-9.7 6.141a2.423 2.423 0 01-.188-.68h8.484a2.426 2.426 0 01-.302.91 3.266 3.266 0 01-.917 1.017 4.582 4.582 0 01-1.384.686 5.602 5.602 0 01-1.639.242c-.563 0-1.12-.082-1.639-.242a4.595 4.595 0 01-1.384-.686 3.266 3.266 0 01-.917-1.017 2.663 2.663 0 01-.114-.23zm12.017-.68h8.484a2.425 2.425 0 01-.302.91 3.266 3.266 0 01-.917 1.017 4.583 4.583 0 01-1.384.686 5.601 5.601 0 01-1.639.242c-.563 0-1.12-.082-1.639-.242a4.577 4.577 0 01-1.383-.686 3.266 3.266 0 01-.918-1.017 2.421 2.421 0 01-.302-.91zm-8.04-6.513l3.12 5.134H2.684l3.119-5.134zm9.087 5.134l3.119-5.134 3.119 5.134h-6.238z" fill="#4BA82E" stroke="#4BA82E" stroke-width=".2"/></svg>
